X:1
T:Cut It Down
T:Cut It Down
T:Philip Paul Bliss
T:Philip Paul Bliss (1838-1876)
T:Public Domain Courtesy of the Cyber Hymnal™
T:Public Domain Courtesy of the Cyber Hymnal™
C:Philip Paul Bliss
Z:Public Domain
Z:Courtesy of the Cyber Hymnal™
%%score ( 1 2 ) ( 3 4 )
L:1/8
Q:1/4=110
M:4/4
K:Eb
V:1 treble 
V:2 treble 
V:3 bass 
V:4 bass 
V:1
 [EG]2 [EG]2 [DF]4 | [CE]2 [CE]2 [=B,D]3 [B,D] | C2 [FA]2 [EG]2 [EF]2 | ([EG]4 [DF]2) z [DF] | %4
w: 1.~Cut it down,|cut it down, Spare|not the fruit- less|tree! * It|
w: 2.~One year more,|one year more, Oh,|spare the fruit- less|tree! * Be-|
w: 3.~Cut it down,|cut it down, And|burn the worth- less|tree! * For|
w: 4.~One year more,|one year more, For|mer- cy spare the|tree! * An-|
w: 5.~Still it stands,|still it stands, A|fair, but fruit- less|tree! * The|
 [DF]2 [DB]2 [C=A]2 [DB]2 | [Fd]3 [Ec] [DB]3 [DF] | [DF]2 [DB]2 [C=A]2 [DB]2 | %7
w: spreads a harm- ful|shade a- round, It|spoils what else were|
w: hold its branch- es|broad and green Its|spread- ing leaves have|
w: o- ther use the|soil pre- pare, Some|o- ther tree will|
w: o- ther year of|care be- stow, On|its fair form some|
w: Mas- ter, seek- ing|fruit there- on Has|come— but, grieved at|
 [Fd]3 [Ec] [DB]3 [AB] | [GB]2 [Ge]2 [GB]3 [F=B] | [Ec]2 [Ec]2 F4 | F2 [=EG]2 [FA]2 z2 | %11
w: use- ful ground. No|fruit for years on|it I’ve found;|Cut it down,|
w: hope- ful been, Some|fruit there- on may|yet be seen;|One year more,|
w: flour- ish there, And|in my vine- yard|much fruit bear,|Cut it down,|
w: fruit may grow, If|not— then lay the|cum- b’rer low,|One year more,|
w: find- ing none, Now|speaks to Jus- tice—|Mer- cy flown—|Cut it down,|
 [B,D]2 [B,D]2 [B,E]4 |] %12
w: cut it down.|
w: one year more.|
w: cut it down.|
w: one year more.|
w: cut it down.|
V:2
 x8 | x8 | C2 x6 | x8 | x8 | x8 | x8 | x8 | x8 | x4 F4 | F2 x6 | x8 |] %12
V:3
 [E,B,]2 [E,B,]2 [B,,B,]4 | [C,G,]2 [C,G,]2 [G,,G,]3 [G,,G,] | [A,,E,]2 [F,,C]2 [G,,B,]2 [A,,C]2 | %3
 [B,,B,]6 z [B,,B,] | [B,,B,]2 [B,,B,]2 F,2 [F,B,]2 | [F,B,]3 [F,=A,] [B,,B,]3 [B,,B,] | %6
 [B,,B,]2 [B,,B,]2 F,2 [F,B,]2 | [F,B,]3 [F,=A,] [B,,B,]3 [B,,D] | [E,E]2 [E,E]2 [G,D]3 [G,D] | %9
 [A,C]2 [A,C]2 [A,C]4 | [A,C]2 [G,C]2 [F,C]2 z2 | [B,,B,]2 [B,,A,]2 [E,G,]4 |] %12
V:4
 x8 | x8 | x8 | x8 | x4 F,2 x2 | x8 | x4 F,2 x2 | x8 | x8 | x8 | x8 | x8 |] %12

